svg/pointer.svg

<svg width="16" height="13" fill="none" xmlns="http://www.w3.org/2000/svg"><g clip-path="url(#a)"><path opacity=".6" d="M0 12.25V0h1.75v1.75h3.5V3.5h3.5v1.75h3.5V7h-3.5v1.75h-3.5v1.75h-3.5v1.75H0Z" fill="#000"/></g><defs><clipPath id="a"><path fill="#fff" d="M0 0h16v13H0z"/></clipPath></defs></svg>

<svg width="16" height="13" viewBox="0 0 16 13" fill="none" xmlns="http://www.w3.org/2000/svg">
<g clip-path="url(#clip0_801_396)">
<path opacity="0.6" d="M0 12.25V0H1.75V1.75H5.25V3.5H8.75V5.25H12.25V7H8.75V8.75H5.25V10.5H1.75V12.25H0Z" fill="black"/>
</g>
<defs>
<clipPath id="clip0_801_396">
<rect width="16" height="13" fill="white"/>
</clipPath>
</defs>
</svg>
